docs/.gitbook/assets/icon-lock-unlocked-16@light.svg

<svg width="32" height="32" viewBox="0 0 16 16" fill="none" xmlns="http://www.w3.org/2000/svg">
<rect x="0" y="0" width="16" height="16" fill="#fff"/>
<path fill-rule="evenodd" clip-rule="evenodd" d="M8 2.5C6.61929 2.5 5.5 3.61929 5.5 5H11.25C12.7688 5 14 6.23122 14 7.75V12.25C14 13.7688 12.7688 15 11.25 15H4.75C3.23122 15 2 13.7688 2 12.25V7.75C2 6.49122 2.84575 5.42998 4 5.10352V5C4 2.79086 5.79086 1 8 1C8.83488 1 9.47736 1.13938 9.92467 1.28849C10.1478 1.36286 10.3212 1.43926 10.4448 1.50105C10.5066 1.53194 10.5559 1.55918 10.5927 1.58068C10.6112 1.59143 10.6265 1.60075 10.6387 1.60839L10.6547 1.61854L10.6609 1.6226L10.6636 1.62437L10.6649 1.62519L10.6655 1.62558C10.6657 1.62577 10.666 1.62596 10.25 2.25L10.666 1.62596C11.0107 1.85573 11.1038 2.32138 10.874 2.66603C10.6462 3.00779 10.1864 3.10223 9.84263 2.87972C9.84153 2.87906 9.83963 2.87792 9.83694 2.87635C9.82693 2.87051 9.80593 2.85868 9.77396 2.8427C9.71005 2.81074 9.6022 2.76214 9.45033 2.71151C9.14764 2.61062 8.66512 2.5 8 2.5ZM4.75 6.5C4.05964 6.5 3.5 7.05964 3.5 7.75V12.25C3.5 12.9404 4.05964 13.5 4.75 13.5H11.25C11.9404 13.5 12.5 12.9404 12.5 12.25V7.75C12.5 7.05964 11.9404 6.5 11.25 6.5H4.75Z" fill="#000"/>
</svg>

<svg xmlns="http://www.w3.org/2000/svg" width="32" height="32" fill="none" viewBox="0 0 16 16"><path fill="#fff" d="M0 0h16v16H0z"/><path fill="#000" fill-rule="evenodd" d="M8 2.5A2.5 2.5 0 0 0 5.5 5h5.75A2.75 2.75 0 0 1 14 7.75v4.5A2.75 2.75 0 0 1 11.25 15h-6.5A2.75 2.75 0 0 1 2 12.25v-4.5a2.75 2.75 0 0 1 2-2.646V5a4 4 0 0 1 4-4c.835 0 1.477.14 1.925.288a4 4 0 0 1 .668.293l.046.027.016.01.006.005.003.001v.001h.002l-.416.625.416-.624a.75.75 0 0 1-.83 1.25l-.062-.033a2.5 2.5 0 0 0-.324-.131C9.148 2.61 8.665 2.5 8 2.5m-3.25 4c-.69 0-1.25.56-1.25 1.25v4.5c0 .69.56 1.25 1.25 1.25h6.5c.69 0 1.25-.56 1.25-1.25v-4.5c0-.69-.56-1.25-1.25-1.25z" clip-rule="evenodd"/></svg>
